!!!OTL@@FUR: E l'alegrie 'a &egrave; dai zovins
!!!OTL@IT: E l'allegria &egrave; dei giovani
!!!OTL@EN: Happines is for the young
**kern
*clefG2
*k[b-]
*F:
*M2/4
*MM125
*>[A,A]
*>A
8cc
8cc
8cc
=1
4dd
[4cc
=2
8cc]
8a
8dd
8dd
=3
4cc
[4b-
=4
8b-]
8cc
8cc
8dd
=5
4ee
4dd
=6
4ee
4ee
=7
4dd
[4cc
=8
8cc]
8cc
8cc
8cc
=9
4dd
[4cc
=10
8cc]
8a
8dd
8dd
=11
4cc
[4b-
=12
8b-]
8cc
8cc
8dd
=13
8.ee
16dd
8cc
8dd
=14
8.ee
16dd
8cc
8b-
=15
[2a
=18
8a]
==:|!
*-
!!!ARE: Friuli
!!!ENC: Kelly Leistikow
!!!END: 2002/03/07
!!!ref: @{OTL@@FUR}/@{OTL@EN}
